src/assets/upload-icon.svg

<svg width="24" height="24" viewBox="0 0 24 24" fill="none" xmlns="http://www.w3.org/2000/svg">
<path d="M11 16V7.85L8.4 10.45L7 9L12 4L17 9L15.6 10.45L13 7.85V16H11ZM6 20C5.45 20 4.97933 19.8043 4.588 19.413C4.19667 19.0217 4.00067 18.5507 4 18V15H6V18H18V15H20V18C20 18.55 19.8043 19.021 19.413 19.413C19.0217 19.805 18.5507 20.0007 18 20H6Z" fill="#111111"/>
</svg>

<svg xmlns="http://www.w3.org/2000/svg" width="24" height="24" fill="none"><path fill="#111" d="M11 16V7.85l-2.6 2.6L7 9l5-5 5 5-1.4 1.45-2.6-2.6V16zm-5 4q-.824 0-1.412-.587A1.93 1.93 0 0 1 4 18v-3h2v3h12v-3h2v3q0 .825-.587 1.413A1.92 1.92 0 0 1 18 20z"/></svg>
